packages/icons/src/traffic-light-fill.svg

<svg width="24" height="24" viewBox="0 0 24 24" fill="none" xmlns="http://www.w3.org/2000/svg">
<path d="M12 18C12.4333 18 12.7917 17.8583 13.075 17.575C13.3583 17.2917 13.5 16.9333 13.5 16.5C13.5 16.0667 13.3583 15.7083 13.075 15.425C12.7917 15.1417 12.4333 15 12 15C11.5667 15 11.2083 15.1417 10.925 15.425C10.6417 15.7083 10.5 16.0667 10.5 16.5C10.5 16.9333 10.6417 17.2917 10.925 17.575C11.2083 17.8583 11.5667 18 12 18ZM12 13.5C12.4333 13.5 12.7917 13.3583 13.075 13.075C13.3583 12.7917 13.5 12.4333 13.5 12C13.5 11.5667 13.3583 11.2083 13.075 10.925C12.7917 10.6417 12.4333 10.5 12 10.5C11.5667 10.5 11.2083 10.6417 10.925 10.925C10.6417 11.2083 10.5 11.5667 10.5 12C10.5 12.4333 10.6417 12.7917 10.925 13.075C11.2083 13.3583 11.5667 13.5 12 13.5ZM12 9C12.4333 9 12.7917 8.85833 13.075 8.575C13.3583 8.29167 13.5 7.93333 13.5 7.5C13.5 7.06667 13.3583 6.70833 13.075 6.425C12.7917 6.14167 12.4333 6 12 6C11.5667 6 11.2083 6.14167 10.925 6.425C10.6417 6.70833 10.5 7.06667 10.5 7.5C10.5 7.93333 10.6417 8.29167 10.925 8.575C11.2083 8.85833 11.5667 9 12 9ZM7 15V13.85C6.15 13.6167 5.4375 13.15 4.8625 12.45C4.2875 11.75 4 10.9333 4 10H7V8.85C6.15 8.61667 5.4375 8.15 4.8625 7.45C4.2875 6.75 4 5.93333 4 5H7C7 4.45 7.19583 3.97917 7.5875 3.5875C7.97917 3.19583 8.45 3 9 3H15C15.55 3 16.0208 3.19583 16.4125 3.5875C16.8042 3.97917 17 4.45 17 5H20C20 5.93333 19.7125 6.75 19.1375 7.45C18.5625 8.15 17.85 8.61667 17 8.85V10H20C20 10.9333 19.7125 11.75 19.1375 12.45C18.5625 13.15 17.85 13.6167 17 13.85V15H20C20 15.9333 19.7125 16.75 19.1375 17.45C18.5625 18.15 17.85 18.6167 17 18.85V19C17 19.55 16.8042 20.0208 16.4125 20.4125C16.0208 20.8042 15.55 21 15 21H9C8.45 21 7.97917 20.8042 7.5875 20.4125C7.19583 20.0208 7 19.55 7 19V18.85C6.15 18.6167 5.4375 18.15 4.8625 17.45C4.2875 16.75 4 15.9333 4 15H7Z" fill="black"/>
</svg>

<svg xmlns="http://www.w3.org/2000/svg" width="24" height="24" fill="none" viewBox="0 0 24 24">
  <path fill="#000" d="M12 18c.433 0 .792-.142 1.075-.425.283-.283.425-.642.425-1.075 0-.433-.142-.792-.425-1.075C12.792 15.142 12.433 15 12 15c-.433 0-.792.142-1.075.425-.283.283-.425.642-.425 1.075 0 .433.142.792.425 1.075.283.283.642.425 1.075.425Zm0-4.5c.433 0 .792-.142 1.075-.425.283-.283.425-.642.425-1.075 0-.433-.142-.792-.425-1.075-.283-.283-.642-.425-1.075-.425-.433 0-.792.142-1.075.425-.283.283-.425.642-.425 1.075 0 .433.142.792.425 1.075.283.283.642.425 1.075.425ZM12 9c.433 0 .792-.142 1.075-.425.283-.283.425-.642.425-1.075 0-.433-.142-.792-.425-1.075C12.792 6.142 12.433 6 12 6c-.433 0-.792.142-1.075.425-.283.283-.425.642-.425 1.075 0 .433.142.792.425 1.075.283.283.642.425 1.075.425Zm-5 6v-1.15a4.123 4.123 0 0 1-2.138-1.4C4.287 11.75 4 10.933 4 10h3V8.85a4.124 4.124 0 0 1-2.138-1.4C4.287 6.75 4 5.933 4 5h3c0-.55.196-1.02.588-1.413A1.926 1.926 0 0 1 9 3h6c.55 0 1.02.196 1.413.587.39.393.587.863.587 1.413h3c0 .933-.288 1.75-.863 2.45A4.124 4.124 0 0 1 17 8.85V10h3c0 .933-.288 1.75-.863 2.45A4.123 4.123 0 0 1 17 13.85V15h3c0 .933-.288 1.75-.863 2.45A4.123 4.123 0 0 1 17 18.85V19c0 .55-.196 1.02-.587 1.413A1.926 1.926 0 0 1 15 21H9c-.55 0-1.02-.196-1.412-.587A1.926 1.926 0 0 1 7 19v-.15a4.123 4.123 0 0 1-2.138-1.4C4.287 16.75 4 15.933 4 15h3Z"/>
</svg>
